X: 11034
T: Dub, The
R: reel
M: 4/4
K: Adorian
A2 EA G2 EA|GEDB GABG|A2 EA G2 EA|GEDG EAAG|
A2 EA G2 EA|GEDB GABc|dBcA BGAF|GEDG EAAG|

